packages/components/src/assets/no-star.svg

<?xml version="1.0" encoding="UTF-8"?>
<svg enable-background="new 0 0 600 600" version="1.1" viewBox="0 0 600 600" xml:space="preserve" xmlns="http://www.w3.org/2000/svg">
<style type="text/css">
	.st0{fill:#DCE4EB;}
</style>
  <path class="st0" d="m379.9 352.6 49.4 152-129.3-94-129.3 93.9 49.4-152-129.3-93.9h159.8l49.4-152 49.4 152h159.8l-129.3 94zm185-124.1h-193.6l-59.8-184.2c-1.8-5.6-6.6-8.3-11.5-8.3-4.8 0-9.7 2.8-11.5 8.3l-59.8 184.1h-193.6c-11.7 0-16.6 15-7.1 21.8l156.6 113.8-59.8 184.1c-2.8 8.5 4 15.9 11.5 15.9 2.4 0 4.8-0.7 7.1-2.4l156.6-113.7 156.6 113.8c2.3 1.6 4.7 2.4 7.1 2.4 7.5 0 14.3-7.4 11.5-15.9l-59.8-184.1 156.6-113.8c9.5-6.9 4.6-21.8-7.1-21.8z"/>
</svg>

<?xml version="1.0" encoding="utf-8"?>
<!-- Generator: Adobe Illustrator 22.1.0, SVG Export Plug-In . SVG Version: 6.00 Build 0)  -->
<svg version="1.1" id="Layer_1" xmlns="http://www.w3.org/2000/svg" xmlns:xlink="http://www.w3.org/1999/xlink" x="0px" y="0px"
	 viewBox="0 0 600 600" style="enable-background:new 0 0 600 600;" xml:space="preserve">
<style type="text/css">
	.st0{fill:#DCE4EB;}
</style>
	<path class="st0" d="M379.9,352.6l49.4,152L300,410.6l-129.3,93.9l49.4-152L90.8,258.6h159.8l49.4-152
		l49.4,152h159.8L379.9,352.6z M564.9,228.5H371.3L311.5,44.3c-1.8-5.6-6.6-8.3-11.5-8.3c-4.8,0-9.7,2.8-11.5,8.3l-59.8,184.1H35.1
		c-11.7,0-16.6,15-7.1,21.8l156.6,113.8l-59.8,184.1c-2.8,8.5,4,15.9,11.5,15.9c2.4,0,4.8-0.7,7.1-2.4L300,447.9l156.6,113.8
		c2.3,1.6,4.7,2.4,7.1,2.4c7.5,0,14.3-7.4,11.5-15.9l-59.8-184.1L572,250.3C581.5,243.4,576.6,228.5,564.9,228.5L564.9,228.5z"/>
</svg>
